X:4930
T:Paddy Fahys reel (number 10)
O:england
M:4/4
L:1/8
C:Paddy Fahy
K:C
Bc |: dG~G2 dGBd | c=F~F2 cFAc | BG~G2 dGBG | BdcA G2Bc :|
dg~g2 agfa | gedc BGBc | dggf gage | defg ~a2ge |
dggf gbag  | fdcA BGBd | dG~G2 dGBG | BdcA G2Bc :||


